icons/source/generic/mailing-list.svg

<?xml version="1.0" encoding="utf-8"?>
<!-- Generated by IcoMoon.io -->
<!DOCTYPE svg PUBLIC "-//W3C//DTD SVG 1.1//EN" "http://www.w3.org/Graphics/SVG/1.1/DTD/svg11.dtd">
<svg version="1.1" xmlns="http://www.w3.org/2000/svg" xmlns:xlink="http://www.w3.org/1999/xlink" width="32" height="32" viewBox="0 0 32 32">
<path d="M31.975 9.851h0.025v0.781c0 1.102-1.006 2.504-2.236 3.119l-1.764 0.881v-9h-24v9l-1.764-0.881c-1.23-0.615-2.236-2.017-2.236-3.119v-0.781h0.025c0.065-1.004 0.907-2.191 1.975-2.834v-3.385h6.687l5.077-2.539c0.615-0.307 1.425-0.461 2.236-0.461s1.621 0.155 2.236 0.461l5.077 2.539h6.687v3.385c1.068 0.642 1.91 1.83 1.975 2.834zM19.131 20.12l11.527-5.762c0.486-0.242 0.938-0.555 1.342-0.914v15.688c0 1.375-1.125 2.5-2.5 2.5h-27c-1.375 0-2.5-1.125-2.5-2.5v-15.688c0.404 0.36 0.856 0.672 1.342 0.915l11.527 5.761c0.868 0.434 1.98 0.674 3.131 0.674s2.263-0.24 3.131-0.674zM7.003 8.829h17.993v1.373h-17.993zM7.003 11.509h17.993v1.373h-17.993zM7.003 14.189h17.993v1.373h-17.993z"></path>
</svg>

<svg xmlns="http://www.w3.org/2000/svg" width="32" height="32" viewBox="0 0 32 32"><path d="M31.975 9.851H32v.781c0 1.102-1.006 2.504-2.236 3.119L28 14.632v-9H4v9l-1.764-.881C1.006 13.136 0 11.734 0 10.632v-.781h.025C.09 8.847.932 7.66 2 7.017V3.632h6.687l5.077-2.539C14.379.786 15.189.632 16 .632s1.621.155 2.236.461l5.077 2.539H30v3.385c1.068.642 1.91 1.83 1.975 2.834zM19.131 20.12l11.527-5.762A6.178 6.178 0 0 0 32 13.444v15.688c0 1.375-1.125 2.5-2.5 2.5h-27a2.507 2.507 0 0 1-2.5-2.5V13.444c.404.36.856.672 1.342.915l11.527 5.761c.868.434 1.98.674 3.131.674s2.263-.24 3.131-.674zM7.003 8.829h17.993v1.373H7.003zm0 2.68h17.993v1.373H7.003zm0 2.68h17.993v1.373H7.003z"/></svg>
